svg/fluentui-system-icons/ic_fluent_new_20_regular.svg

<svg width="20" height="20" viewBox="0 0 20 20" fill="none" xmlns="http://www.w3.org/2000/svg">
<path d="M15.5 3C15.7761 3 16 3.22386 16 3.5V11.5C16 11.7761 15.7761 12 15.5 12C15.2239 12 15 11.7761 15 11.5V3.5C15 3.22386 15.2239 3 15.5 3ZM6.14645 6.14645C6.34171 5.95118 6.65829 5.95118 6.85355 6.14645L12.8536 12.1464C13.0488 12.3417 13.0488 12.6583 12.8536 12.8536C12.6583 13.0488 12.3417 13.0488 12.1464 12.8536L6.14645 6.85355C5.95118 6.65829 5.95118 6.34171 6.14645 6.14645ZM3.5 15C3.22386 15 3 15.2239 3 15.5C3 15.7761 3.22386 16 3.5 16H11.5C11.7761 16 12 15.7761 12 15.5C12 15.2239 11.7761 15 11.5 15H3.5Z" fill="#212121"/>
</svg>

<svg xmlns="http://www.w3.org/2000/svg" width="20" height="20"><path d="M15.5 3a.5.5 0 0 1 .5.5v8a.5.5 0 0 1-1 0v-8a.5.5 0 0 1 .5-.5ZM6.146 6.146a.5.5 0 0 1 .708 0l6 6a.5.5 0 0 1-.708.708l-6-6a.5.5 0 0 1 0-.708ZM3.5 15a.5.5 0 0 0 0 1h8a.5.5 0 0 0 0-1h-8Z"/></svg>
